X: 54
T: Piano Sonata No. 12 in F major, K 332 (300k), mvmt. 3
C: Wolfgang Amadeus Mozart
%%abc-version 2.0
%%abcx-abcm2ps-target-version 5.9.1 (29 Sep 2008)
%%abc-creator hum2abc beta
%%abcx-conversion-date 2021/01/14 17:01:32
%%abc-copyright 2018 Craig Stuart Sapp
%%abc-edited-by Craig Stuart Sapp
%%abc-edited-by Craig Stuart Sapp
%%abcx-initial-encoding-date 2009/10/15
%%gracespace 0 6 6
%%humdrum-veritas 2076952681
%%humdrum-veritas-data 1683986030
%%linebreak <none>
%%barnumbers 0
L: 1/8
M: 6/8
N: Derived from sonata12-3.krn
Q: "Allegro assai" 3/8=96
%%staves {1 2}
V: 1 clef=treble
V: 2 clef=bass
K: F
[V:1] z/ c'/=b/c'/f'/c'/ _b/a/^g/a/c'/a/ | 
[V:2] [F,,2A,,2C,2F,2]zz2z | 
[V:1] =g/f/e/f/a/f/ d/c/=B/c/f/c/ | 
[V:2] z6 | 
[V:1] _B/A/^G/A/c/A/ F/f/E/f/F/f/ | 
[V:2] z2z .A,.G,.A, | 
[V:1] =G/f/F/f/G/f/ A/f/G/f/A/f/ | 
[V:2] .B,.A,.B, .C.B,.C | 
[V:1] B/f/B/f/A/f/ B/f/B/f/A/f/ | 
[V:2] _D2CD2C | 
[V:1] _A/f/A/f/A/f/ [Ge] z z | 
[V:2] =B,B,B, C z z | 
[V:1] z/ c'/=b/c'/f'/c'/ _b/a/^g/a/c'/a/ | 
[V:2] [F,,2A,,2C,2F,2]zz2z | 
[V:1] =g/f/e/f/a/f/ d/c/=B/c/f/c/ | 
[V:2] z6 | 
[V:1] _B/A/^G/A/c/A/ F/f/E/f/F/f/ | 
[V:2] z2z .A,.G,.A, | 
[V:1] =G/f/F/f/G/f/ A/f/G/f/A/f/ | 
[V:2] .B,.A,.B, .C.B,.C | 
[V:1] B/f/B/f/A/f/ B/f/B/f/A/f/ | 
[V:2] _D2CD2C | 
[V:1] _A/f/ z z G/e/ z z | 
[V:2] =B, z z _B, z z | 
[V:1] ^F/_e/ z z z D/G/B/d/ | 
[V:2] A, z z B,,/B,/ z z | 
[V:1] c/B/A/G/=F/E/ FCC | 
[V:2] [C,2G,2B,2]>[F,2A,2] z z | 
[V:1] {/E//}B2>-B2.A.G | 
[V:2] C,[B,C][B,C] [B,C][B,C][B,C] | 
[V:1] {/G}F3F3 | 
[V:2] F,[A,C][A,C] [A,C][A,C][A,C] | 
[V:1] {/E//}B2>-B2.A.G | 
[V:2] C,[G,C][G,C] [G,C][G,C][G,C] | 
[V:1] =B2>c2 z z | 
[V:2] F,[A,C][A,C] [A,C][A,C][A,C] | 
[V:1] {/E//}_B2>-B2.A.G | 
[V:2] C,[B,C][B,C] [B,C][B,C]C | 
[V:1] F2A-A2c- | 
[V:2] F,[A,C][A,C] [A,C][A,C][A,C] | 
[V:1] c2B-B2G | 
[V:2] C,[G,C][G,C] [B,C][B,C][B,C] | 
[V:1] F z .A, .B,.G.=B, | 
[V:2] [F,A,C] z .A,, .B,,.G,.=B,, | 
[V:1] .C.A.^C .D._B.E | 
[V:2] .C,.A,.^C, .D,._B,.E, | 
[V:1] b2>-b2a/g/f/e/ | 
[V:2] z2z[K:clef=treble][B,3C3E3G3] | 
[V:1] .f.g.a[A2c2][GB] | 
[V:2] [A,CF] z zC2^C | 
[V:1] [G2B2]>[F2A2] z z | 
[V:2] D2>-D2 z z[K:clef=bass] | 
[V:1] z z .A, .B,.G.=B, | 
[V:2] z z .A,, .B,,.G,.=B,, | 
[V:1] .C.A.^C .D._B.E | 
[V:2] .C,.A,.^C, .D,._B,.E, | 
[V:1] b2>-b2a/g/f/e/ | 
[V:2] z2z[K:clef=treble][B,3C3E3G3] | 
[V:1] f//g//a/ z z d//e//f/ z z | 
[V:2] [A,CF] z z [B,DF] z z[K:clef=bass] | 
[V:1] F3{/A//}[E2G2]F | 
[V:2] A,3B,3 & C,6 | 
[V:1] F2A cBG & F3E3 | 
[V:2] F,A,C F,G,B, & F,3F,3 | 
[V:1] FCA cBG & F3E3 | 
[V:2] F,A,C F,G,B, & F,3F,3 | 
[V:1] FCA FCA | 
[V:2] F,A,C F,A,C & F,3F,3 | 
[V:1] [B,2G2]>[A,2F2] z z | 
[V:2] [F,,2F,2]>-[F,,2F,2] z z | 
[V:1] [A3a3][A3g3] | 
[V:2] z6 | 
[V:1] [A3f3][A3e3] | 
[V:2] [A,,3A,3][G,,3G,3] | 
[V:1] [A3d3][G3A3^c3] | 
[V:2] [F,,3F,3][E,,3E,3] | 
[V:1] d/A/F/A/d/A/ e/A/G/A/e/A/ | 
[V:2] D,F,A, ^C,E,A, | 
[V:1] f/d/A/d/f/d/ ^f/d/A/d/f/d/ | 
[V:2] D,F,A, =C,^F,A, | 
[V:1] g2a/g/=f2g/f/ | 
[V:2] =B,,2zz2z[K:clef=treble] | 
[V:1] e2f/e/d2e/d/ | 
[V:2] G3[F3G3] | 
[V:1] c2d/c/=B2c/B/ | 
[V:2] [E3G3][D3F3G3] | 
[V:1] d/c/=B/c/B/c/ e/d/^c/d/c/d/ | 
[V:2] CEG =B,FG | 
[V:1] e/d/=c/d/e/f/ g/f/e/f/g/^g/ | 
[V:2] [CEG] z zz2z[K:clef=bass] | 
[V:1] a/_b/a/=g/f/e/ d/^c'/d'/=c'/=b/a/ | 
[V:2] .F,.F z .=B,,.=B, z | 
[V:1] g/a/g/f/e/d/ c/=b/c'/b/a/g/ | 
[V:2] .E,.E z .A,,.A, z | 
[V:1] f/^c'/d'/=b/g/f/ e/b/=c'/g/f/e/ | 
[V:2] .D, z .=B, .C z .C, | 
[V:1] d/e/d/c/=B/A/ G/ z/ z z | 
[V:2] .G, z z[K:clef=treble] z/ A/G/F/E/D/ | 
[V:1] _e2>-e2.d.c | 
[V:2] C_EG CEG | 
[V:1] ^f2gd2z | 
[V:2] =B,DG B,DG | 
[V:1] _a2>-a2.g.=f | 
[V:2] =B,DF B,DG | 
[V:1] !trill!_e2{/de} fg2z | 
[V:2] C_EG CEG | 
[V:1] c'3_b2c' | 
[V:2] _EGc DFB | 
[V:1] b2_ag3 | 
[V:2] C_E_A B,DG | 
[V:1] f2_ed2c | 
[V:2] _A,CF A,C^F | 
[V:1] _e2>d2 z z | 
[V:2] G,CG G,=B,G | 
[V:1] _e2>-e2.d.c | 
[V:2] C_EG CEG | 
[V:1] ^f2gd2z | 
[V:2] =B,DG B,DG | 
[V:1] _a2>-a2.g.=f | 
[V:2] =B,DF B,DG | 
[V:1] =e2f/g/f2z | 
[V:2] B,_DG =A,CF | 
[V:1] _e'2>-e'2d'c' | 
[V:2] _A,C^F G,CG[K:clef=bass] | 
[V:1] =b3c'2_a | 
[V:2] =F,_A,D _E,CF, | 
[V:1] x3{/_e/}d3 & c3=B3 | 
[V:2] G,C_E G,DF | 
[V:1] c/g/^f/g/=a/g/ =f/g/f/g/f/g/ | 
[V:2] [C2=E2]z .D.=B,.G, | 
[V:1] =e/g/^f/g/c'/g/ =f/g/f/g/f/g/ | 
[V:2] C2z .D.=B,.G, | 
[V:1] e/g/^f/g/c'/g/ =f/g/f/g/f/g/ | 
[V:2] C2z .D.=B,.G, | 
[V:1] e/g/c'/e/d/=b/ c/a/=B/g/A/f/ | 
[V:2] C2zz2z | 
[V:1] G/e/F/d/E/c/ D/=B/C/A/=B,/G/ | 
[V:2] z6 | 
[V:1] [A,3^F3][_A,3=F3] | 
[V:2] z A,,C, _E,D,C,- | 
[V:1] [_A3f3][D3=B3] | 
[V:2] C,=B,,D, _A,G,F, | 
[V:1] z .g.g z .=a.a | 
[V:2] =E, z z F, z z | 
[V:1] c3{/e/}d3 & G3=B3 | 
[V:2] E3F3 & G,6 | 
[V:1] c/g/^f/g/a/g/ =f/g/f/g/f/g/ | 
[V:2] [C2E2]z .D.=B,.G, | 
[V:1] e/g/^f/g/c'/g/ =f/g/f/g/f/g/ | 
[V:2] C2z .D.=B,.G, | 
[V:1] e/g/^f/g/c'/g/ =f/g/f/g/f/g/ | 
[V:2] C2z D.=B,.G, | 
[V:1] e/g/c'/e/d/=b/ c/a/=B/g/A/f/ | 
[V:2] C2zz2z | 
[V:1] G/e/F/d/E/c/ D/=B/C/A/=B,/G/ | 
[V:2] z6 | 
[V:1] [A,3^F3][_A,3=F3] | 
[V:2] z A,,C, _E,D,C,- | 
[V:1] [_A3f3][D3=B3] | 
[V:2] C,=B,,D, _A,G,F, | 
[V:1] z .g.g z .=a.a | 
[V:2] =E, z z F, z z | 
[V:1] c3=B3 & G6 | 
[V:2] [G,3E3][F,3D3] | 
[V:1] ^f/g/f/g/f/g/ ^g/a/g/a/=b/c'/ | 
[V:2] E,G,C F,A,D | 
[V:1] x3{/e//}d2-d/c/ & c3=B3 | 
[V:2] G,CE G,DF | 
[V:1] c/e/g/c'/=b/a/ g/a/g/f/e/d/ | 
[V:2] [C2E2]z[G,2=B,2F2]z | 
[V:1] c/e/d/c/=B/A/ G/A/G/F/E/D/ | 
[V:2] [C2E2]z[G,2=B,2F2]z | 
[V:1] C/E/D/C/=B,/A,/x3 | 
[V:2] x3G,/A,/G,/F,/E,/D,/ & [C,2E,2]z[G,,2=B,,2F,2]z | 
[V:1] x2>.C2.E.G | 
[V:2] .C,.E,.G,x3 & .C,,.E,,.G,, .C,.E,.G, | 
[V:1] c2z[G2c2e2g2]z | 
[V:2] C2z[C,2E,2G,2C2]z | 
[V:1] [c2e2g2c'2]zz2z :|]  
[V:2] [C,2E,2G,2C2]zz2z :|]  
[V:1] z/ g/^f/g/c'/g/ =f/_e/d/e/g/e/ | 
[V:2] [C,,2_E,,2G,,2C,2]zz2z | 
[V:1] d/c/=B/c/_e/c/ A/G/^F/G/c/G/ | 
[V:2] z6 | 
[V:1] =F/_E/D/E/G/E/ C/c/=B,/c/C/c/ | 
[V:2] z2z ._E,.D,.E, | 
[V:1] D/c/C/c/D/c/ =E/c/D/c/E/c/ | 
[V:2] .F,._E,.F, .G,.F,.G, | 
[V:1] F/c/F/c/_E/c/ F/c/F/c/E/c/ | 
[V:2] _A,2G,A,2G, | 
[V:1] D/c/_E/c/D/c/ E/c/=F/c/E/c/ | 
[V:2] ^F,G,F, G,_A,G, | 
[V:1] D/c/_E/c/D/c/ E/c/=F/c/E/c/ | 
[V:2] ^F,G,F, G,_A,G, | 
[V:1] D2z/ ^F/ c/ D/F/A/ c/ ^f/ | 
[V:2] z/ ^F,/=A,/C/ D/ z/z3 | 
[V:1] c'/b/a/g/^f/g/ f/g/f/_e/d/c/ | 
[V:2] z6 | 
[V:1] =B/=f/c/f/B/f/ c/f/_d/f/c/f/ | 
[V:2] G,_A,G, A,_B,A, | 
[V:1] =B/f/c/f/B/f/ c/f/_d/f/c/f/ | 
[V:2] G,_A,G, A,_B,A, | 
[V:1] =B z z/ B/ f/ G/=B/d/ f/ =b/ | 
[V:2] z/ G,/=B,/=D/ F/ z/z3 | 
[V:1] f'/_e'/d'/c'/=b/_a/ g/^f/g/a/g/=f/ | 
[V:2] z6 | 
[V:1] =e/G/f/G/e/G/ f/G/e/G/f/G/ | 
[V:2] C=B,C _DCB, | 
[V:1] e/G/f/G/e/G/ f/G/e/G/f/G/ | 
[V:2] C=B,C _DCB, | 
[V:1] e z z/ E/ B/ C/E/G/ B/ e/ | 
[V:2] z/ C,/E,/G,/ _B,/ z/z3 | 
[V:1] b/a/g/f/e/=d/ c/d/c/B/A/G/ | 
[V:2] z6 | 
[V:1] F/_e/_G/e/F/e/ G/e/_A/e/G/e/ | 
[V:2] A,B,A, B,_CB, | 
[V:1] F/_e/_G/e/F/e/ G/e/_A/e/G/e/ | 
[V:2] A,B,A, B,_CB, | 
[V:1] F z z/ =A/ _e/ F/A/c/ e/ a/ | 
[V:2] z/ A,/=C/_E/ F/ x/x3 | 
[V:1] _e'/d'/c'/b/a/g/ f/g/f/_e/d/c/ | 
[V:2] z6 | 
[V:1] d z d c z c | 
[V:2] B,DF A,CF | 
[V:1] _e3-e2d | 
[V:2] G,B,_E ^F,A,D | 
[V:1] _e z e d z d | 
[V:2] G,B,_E =F,A,D | 
[V:1] g3-g2f | 
[V:2] _E,G,C D,F,B, | 
[V:1] f=ec2d_e- | 
[V:2] C,G,B, F,A,C | 
[V:1] edB2c_d- | 
[V:2] B,,F,B, _G,B,_D | 
[V:1] dc_d2cB | 
[V:2] _E,_G,B, =E,=G,_D | 
[V:1] A2>c2 z z | 
[V:2] F,A,C F,_E,C, | 
[V:1] =d/B/F/B/d/B/ c/A/F/A/c/A/ | 
[V:2] [B,,2B,2]z[A,,2A,2]z | 
[V:1] _e/B/G/B/e/B/ e/B/e/B/d/A/ | 
[V:2] [G,,3G,3]-[G,,2G,2][^F,,^F,] | 
[V:1] _e/B/G/B/e/B/ d/A/F/A/d/A/ | 
[V:2] [G,,2G,2]z[=F,,2=F,2]z | 
[V:1] g/B/G/B/g/B/ g/B/g/B/f/B/ | 
[V:2] [_E,,3_E,3]-[E,,2E,2][D,,D,] | 
[V:1] x> GB/=e< x A/c/_e/ | 
[V:2] C,/G,/B,< x ^F,/A,/C/ x3/ | 
[V:1] x> GB/d< x _E/G/c/ | 
[V:2] G,/B,/D< x _E,/G,/C/ x3/ | 
[V:1] x> DF/B< x _E/F/A/ | 
[V:2] F,,/D,/F,< x F,,/C,/F,/ x3/ | 
[V:1] z6 | 
[V:2] !sfz!B,,,2>-B,,,2D,,F,, | 
[V:1] x2>B,2DF | 
[V:2] z D,F,x3 & B,,6 | 
[V:1] ^FAc _e^fa | 
[V:2] [A,,6-C,6-_E,6] | 
[V:1] c'a^f _ed^F | 
[V:2] [A,,6C,6^F,6] | 
[V:1] AG^c d^fg | 
[V:2] [B,,6D,6G,6]- | 
[V:1] ^c'd'a b^fg | 
[V:2] [B,,6D,6G,6] | 
[V:1] z =f=e z e_d' | 
[V:2] [B,2_D2]z[B,2D2]z | 
[V:1] z _d'c' z c'e | 
[V:2] [B,2C2]z[B,2C2]z | 
[V:1] z ef c'gb | 
[V:2] [_A,,6_A,6]- | 
[V:1] _aeg f_e_d | 
[V:2] [A,,6A,6][K:clef=treble] | 
[V:1] c3=B3 | 
[V:2] z EF _AEF & =D6 | 
[V:1] f3=B3 | 
[V:2] _AEF AGF[K:clef=bass] & _D6 | 
[V:1] z [EGc][F=B=d] z [FBd][G_Be] | 
[V:2] [C,2C2]z[C,2C2]z | 
[V:1] z [GBe][Acf] z [Ac^f][Beg] | 
[V:2] [C,2C2]z[C,2C2]z | 
[V:1] z [Beg][c=fa] z [c^fa][egb] | 
[V:2] [C,2C2]z[C,2C2]z | 
[V:1] [e6g6b6-] | 
[V:2] .C,,.E,,.G,, .C,.E,.G, | 
[V:1] b/c'/d'/c'/b/a/ g/a/b/a/g/f/ | 
[V:2] C z zz2z | 
[V:1] e/f/g/f/e/d/ c/^c/d/=c/B/A/ | 
[V:2] z6 | 
[V:1] G/A/B/A/G/F/ E/F/G/F/E/D/ | 
[V:2] z6 | 
[V:1] z6 | 
[V:2] C/^C/D/=C/B,/A,/ G,/A,/B,/A,/G,/F,/ | 
[V:1] z6 | 
[V:2] E,/F,/G,/F,/E,/D,/ C,/D,/C,/B,,/A,,/G,,/ | 
[V:1] z/ c'/=b/c'/f'/c'/ _b/a/^g/a/c'/a/ | 
[V:2] [F,,2A,,2C,2F,2]zz2z | 
[V:1] =g/f/e/f/a/f/ d/c/=B/c/f/c/ | 
[V:2] z6 | 
[V:1] _B/A/^G/A/c/A/ F/f/E/f/F/f/ | 
[V:2] z2z .A,.G,.A, | 
[V:1] =G/f/F/f/G/f/ A/f/G/f/A/f/ | 
[V:2] .B,.A,.B, .C.B,.C | 
[V:1] B/f/B/f/A/f/ B/f/B/f/A/f/ | 
[V:2] _D2CD2C | 
[V:1] _A/f/A/f/A/f/ [Ge] z z | 
[V:2] =B,B,B, C z z | 
[V:1] z/ c'/=b/c'/f'/c'/ _b/a/^g/a/c'/a/ | 
[V:2] [F,,2A,,2C,2F,2]zz2z | 
[V:1] =g/f/e/f/a/f/ d/c/=B/c/f/c/ | 
[V:2] z6 | 
[V:1] _B/A/^G/A/c/A/ F/f/E/f/F/f/ | 
[V:2] z2z .A,.G,.A, | 
[V:1] =G/f/F/f/G/f/ A/f/G/f/A/f/ | 
[V:2] .B,.A,.B, .C.B,.C | 
[V:1] B/f/B/f/A/f/ B/f/B/f/A/f/ | 
[V:2] _D2CD2C | 
[V:1] _A/f/ z z G/e/ z z | 
[V:2] =B, z z _B, z z | 
[V:1] ^F/_e/ z z z D/G/B/d/ | 
[V:2] A, z z B,,/B,/ z z | 
[V:1] c/B/A/G/=F/E/ FCC | 
[V:2] [C,2G,2B,2]>[F,2A,2] z z | 
[V:1] {/E//}B2>-B2.A.G | 
[V:2] C,[B,C][B,C] [B,C][B,C][B,C] | 
[V:1] {/G}F3F3 | 
[V:2] F,[A,C][A,C] [A,C][A,C][A,C] | 
[V:1] {/E//}B2>-B2.A.G | 
[V:2] C,[G,C][G,C] [G,C][G,C][G,C] | 
[V:1] =B2>c2 z z | 
[V:2] F,[A,C][A,C] [A,C][A,C][A,C] | 
[V:1] {/E//}_B2>-B2.A.G | 
[V:2] C,[B,C][B,C] [B,C][B,C][B,C] | 
[V:1] F2A-A2c- | 
[V:2] F,[A,C][A,C] [A,C][A,C][A,C] | 
[V:1] c2B-B2G | 
[V:2] C,[G,C][G,C] [B,C][B,C][B,C] | 
[V:1] F z z[^c3^c'3] | 
[V:2] [F,A,C] z z[_E,3G,3^C3] | 
[V:1] [d3d'3][d3=c'3] | 
[V:2] [D,2^F,2D2]zz2z | 
[V:1] [d3b3][d3a3] | 
[V:2] [D,3D3][=C,3=C3] | 
[V:1] [d3g3][c3d3^f3] | 
[V:2] [B,,3B,3][A,,3A,3] | 
[V:1] g/d/B/d/g/d/ a/d/c/d/a/d/ | 
[V:2] G,B,D ^F,A,D | 
[V:1] b/g/d/g/b/g/ =b/g/d/g/b/g/ | 
[V:2] G,B,D =F,=B,D | 
[V:1] c'2d'/c'/_b2c'/b/ | 
[V:2] E,2zz2z[K:clef=treble] | 
[V:1] a2b/a/g2a/g/ | 
[V:2] c3[B3c3] | 
[V:1] f2g/f/e2f/e/ | 
[V:2] [A3c3][G3B3c3] | 
[V:1] g/f/e/f/e/f/ a/g/^f/g/f/g/ | 
[V:2] FAc EGc | 
[V:1] a/g/=f/g/a/b/ c'/b/a/b/c'/^c'/ | 
[V:2] [FAc] z zz2z[K:clef=bass] | 
[V:1] d'/d/d'/=c'/b/a/ g/^f/g/a/b/=b/ | 
[V:2] .B,,.B, z .E,.E z | 
[V:1] c'/c/c'/b/a/g/ =f/e/f/g/_a/=a/ | 
[V:2] A,,.A, z .D,.D z | 
[V:1] b/c'/b/a/g/f/ e/f/e/d/c/B/ | 
[V:2] G,,A,,B,, C,D,E, | 
[V:1] A/c/f/g/f/e/ d/c/B/A/G/F/ | 
[V:2] F, z A,, B,, z =B,, | 
[V:1] E/F/G/F/E/D/ C/ z/ z z | 
[V:2] C, z z z/ D/C/_B,/A,/G,/ | 
[V:1] _A2>-A2.G.F | 
[V:2] F,_A,C F,A,C | 
[V:1] =B2cG2z | 
[V:2] E,G,C E,G,C | 
[V:1] _d2>-d2.c.B | 
[V:2] E,G,B, E,G,C | 
[V:1] !trill!_A2{/GA} Bc2z | 
[V:2] F,_A,C F,A,C | 
[V:1] f3_e2f | 
[V:2] _A,CF G,B,_E | 
[V:1] _e2_dc3 | 
[V:2] F,_A,_D _E,G,C | 
[V:1] B2_AG2F | 
[V:2] _D,F,B, D,F,=B, | 
[V:1] _A2>G2 z z | 
[V:2] C,F,C C,=E,C | 
[V:1] [_A2_a2]>-[A2a2].[Gg].[Ff] | 
[V:2] F,_A,C F,A,C | 
[V:1] [=B2=b2][cc'][G2g2]z | 
[V:2] E,G,C E,G,C | 
[V:1] [_d2_d'2]>-[d2d'2].[cc'].[Bb] | 
[V:2] E,G,B, E,G,C | 
[V:1] [=A2=a2][cc'][B2b2]z | 
[V:2] _E,_G,=A, =D,F,B, | 
[V:1] [=B3=b3][c3c'3] | 
[V:2] _D,F,_A, C,F,A, | 
[V:1] [_d2_d'2]>[c2c'2] z z/ f'/ | 
[V:2] B,,=E,G, _A,,C,F, | 
[V:1] f3{/_a/}g3 & c3e3 | 
[V:2] C,F,_A, C,G,B, | 
[V:1] f/c/=B/c/=d/c/ _B/c/B/c/B/c/ | 
[V:2] [F,2=A,2]z .G,.E,.C, | 
[V:1] =A/c/=B/c/f/c/ _B/c/B/c/B/c/ | 
[V:2] F,2z .G,.E,.C, | 
[V:1] A/ c'/=b/c'/d'/c'/ _b/c'/b/c'/b/c'/ | 
[V:2] F,2z[K:clef=treble] .G.E.C | 
[V:1] a/c'/=b/c'/f'/c'/ _b/c'/b/c'/b/c'/ | 
[V:2] F2z .G.E.C | 
[V:1] a/c'/f'/a/g/e'/ f/d'/e/c'/d/b/ | 
[V:2] F2zz2z | 
[V:1] c/a/B/g/A/f/ G/e/F/d/E/c/ | 
[V:2] z6[K:clef=bass] | 
[V:1] [D3=B3][_D3_B3] | 
[V:2] z D,F, _A,G,F,- | 
[V:1] [_d3b3][G3e3] | 
[V:2] F,E,G, _DCB, | 
[V:1] z .c'.c' z =d'.d' | 
[V:2] =A, z z B, z z[K:clef=treble] | 
[V:1] f3{/a/}g3 & c3e3 | 
[V:2] A3B3 & C6 | 
[V:1] f/c/=B/c/=d/c/ _B/c/B/c/B/c/ | 
[V:2] A2z[K:clef=bass] .G,.E,.C, & F2zx3 | 
[V:1] A/c/=B/c/f/c/ _B/c/B/c/B/c/ | 
[V:2] F,2z .G,.E,.C, | 
[V:1] A/ c'/=b/c'/d'/c'/ _b/c'/b/c'/b/c'/ | 
[V:2] F,2z[K:clef=treble] .G.E.C | 
[V:1] a/c'/=b/c'/f'/c'/ _b/c'/b/c'/b/c'/ | 
[V:2] F2z .G.E.C | 
[V:1] a/c'/f'/a/g/e'/ f/d'/e/c'/d/b/ | 
[V:2] F2zz2z | 
[V:1] c/a/B/g/A/f/ G/e/F/d/E/c/ | 
[V:2] z6[K:clef=bass] | 
[V:1] [D3=B3][_D3_B3] | 
[V:2] z D,F, _A,G,F,- | 
[V:1] [_d3b3][G3e3] | 
[V:2] F,E,G, _DCB, | 
[V:1] z .c'.c' z .d'.d' | 
[V:2] =A, z z B, z z[K:clef=treble] | 
[V:1] f3e3 & c6 | 
[V:2] [C3A3][B,3G3] | 
[V:1] =b/c'/b/c'/b/c'/ ^c'/d'/c'/d'/e'/f'/ | 
[V:2] A,CF B,DG | 
[V:1] f3{/a//}g2-g/f/ & c3e3 | 
[V:2] CFA CGB | 
[V:1] f/a/c'/f'/e'/d'/ c'/d'/c'/b/a/g/ | 
[V:2] [F2A2]z[C2E2B2]z | 
[V:1] f/a/g/f/e/d/ c/d/c/B/A/G/ | 
[V:2] [F2A2]z[C2E2B2]z[K:clef=bass] | 
[V:1] F/A/G/F/E/D/ C/D/C/B,/A,/G,/ | 
[V:2] [F,2A,2]z[C,2E,2B,2]z | 
[V:1] x2>.F2.A.c | 
[V:2] .F,.A,Cx3 & .F,,.A,,.C, .F,.A,.C | 
[V:1] f2z[c2a2c'2]z | 
[V:2] F2z[F,2F2]z | 
[V:1] [f2c'2_e'2]zz2z | 
[V:2] [A,,2A,2]zz2z | 
[V:1] [f2b2d'2]zz2z | 
[V:2] [B,,2B,2]zz2z | 
[V:1] [f2_a2d'2f'2]zz2z | 
[V:2] [=B,,2=B,2]zz2z | 
[V:1] F6 & C6 | 
[V:2] [C,6-=A,6] | 
[V:1] AG2-G2F & [C6E6] | 
[V:2] [C,6_B,6] | 
[V:1] [CF] z .A, .B,.G.=B, | 
[V:2] [F,A,] z .A,, .B,,.G,.=B,, | 
[V:1] .C.A.^C .D._B.E | 
[V:2] .C,.A,.^C, .D,._B,.E,[K:clef=treble] | 
[V:1] b2>-b2a/g/f/e/ | 
[V:2] z2z[B,3C3E3G3] | 
[V:1] .f.g.a[A2c2][GB] | 
[V:2] [A,CF] z zC2^C | 
[V:1] [G2B2]>[F2A2] z z | 
[V:2] D2>-D2 z z[K:clef=bass] | 
[V:1] z z .A, .B,.G.=B, | 
[V:2] z z .A,, .B,,.G,.=B,, | 
[V:1] .C.A.^C .D._B.E | 
[V:2] .C,.A,.^C, .D,._B,.E,[K:clef=treble] | 
[V:1] b2>-b2a/g/f/e/ | 
[V:2] z2z[B,3C3E3G3] | 
[V:1] f//g//a/ z z d//e//f/ z z | 
[V:2] [A,CF] z z [B,DF] z z[K:clef=bass] | 
[V:1] F3{/A/}[E2G2]F & C6 | 
[V:2] A,3B,3 & C,6 | 
[V:1] F2A cBG & F3E3 | 
[V:2] F,A,C F,G,B, & F,3F,3 | 
[V:1] FCA cBG & F3E3 | 
[V:2] F,A,C F,G,B, & F,3F,3 | 
[V:1] FCA FCA | 
[V:2] F,A,C F,A,C & F,3F,3 | 
[V:1] [B,2G2]>[A,2F2] z z |]  
[V:2] [F,,2F,2]>-[F,,2F,2] z z |]  


